X:155
T:Tom Billy's No. 1
Z: id:dc-jig-130
M:6/8
L:1/8
K:A Mixolydian
Ace|a3 ece|edB BAA|eaa ece|dcB Ace|!
a3 ece|edB BAB|GBd gfe|fdB:|!
Ace|g3 a3|bag fed|faf g3|edc def|!
g3 a3|bge gab|age dBe|ABA:|!
aed|c3 d3|edB dBA|ABA dBA|ABA aed|!
c3 d3|ede gab|age dBe|ABA:|!

